X:958
T:Añada (CT 476)
R:Añada
C:Tradicional
S:Música Tradicional Asturiana, (C) Tello & Tito. Asturies, 2001.
S:http://pagina.de/MusTradAst <telloytito@asturies.org>
N:Canción de cuna (Añada), dictada por María de la Fuente, de cincuenta y seis años, de Cuideiru.
O:Cuideiru
A:Asturies
Z:Cancioneru de Torner 476
M:2/4
L:1/8
Q:1/4=80
W:Pedru Meleiru (bis)
W:na Villa de Grau,
W:llevaba la gaita
W:colgada d'un palu.
W:Agora non, mio neñu, agora non,
W:agora non, mio neñu, agora non.
K:Gm
|:d2 dd|d2 AB|c2 dc|A2 ^F2:|
|D=E ^FG|c2 BA|G2 A^F|D2 D2|
|^FG AG|A2 A^F|D4|
^FG AG|A2 A^F|D2z||



Xuacu Amieva 29
M:3/8
L:1/8
Q:3/8=42
K:Cm
|C2 E|GGF|GEF|GAG|[1 F3-|F3 :|[2 F3|E2 ~D|
|C3-|CFF|E2 ~D|C3-|C3|G2 ~F|EFF|E2 ~D|C3-|C3|
%%%%%%%%%%%%%%%%%%%%%%%%%%%%%%%%%%%%%%%%%%%%%%%%%%%%%%%%%%%%%%%%%%%%%%

%%%%%%%%%%%%%%%%%%%%   Colección de ABCs de  la Taberna   %%%%%%%%%%%%

%%%%%%%%%%%%%%%%%%%%%%%%%%%%%%%%%%%%%%%%%%%%%%   N I L   %%%%%%%%%%%%%

%%%%%%%%%%%%%%%%%%%%%%%%%%%%%%%%%%%%%%%%%%%%%%%%%%%%%%%%%%%%%%%%%%%%%%






